!!!OTL: Osterlied
!!!ARE: Europa, Mitteleuropa, Deutschland
!!!SCT: A0562
!!!YEM: Copyright 1995, estate of Helmut Schaffrath.
**kern
*ICvox
*Ivox
*M4/2
*k[b-]
*F:
{1f
=1
2f
2cc
2a
2f
=2
2g
2b-
1a}
=3
{1cc
2b-
2a
=4
1g
1f}
=5
{1b-
2b-
2b-
=6
2b-
2g
2a
2b-
=7
1cc}
{2b-
2a
=8
1g
1f}
=9
{1cc
2.dd
4cc
=10
2b-
2a
1g
=11
0f
=12
1r}
==
!!!AGN: Romanze, Ballade, Lied, religioeses Lied
!! Constanzer Gsgb 1600 fol. 76.
!!!ONB: ESAC (Essen Associative Code) Database: ALTDEU
!!!AMT: simple quadruple
!!!AIN: vox
!!!EED: Helmut Schaffrath
!!!EEV: 1.0
*-
